X:1
T:Title
%%score { 1 | ( 2 3 ) }
L:1/8
Q:1/4=106
M:4/4
K:C
V:1 treble nm="Grand Piano"
V:2 bass 
V:3 bass 
V:1
 [EG]2 [CE]2 [Ec]3 [CE] | [EG]2 [DF]2 [DF][^CE] [DF]2 | [B,D]2 [CE]2 [DF]3 [FA] | %3
w: Asa~Hull * * *|||
 [EG]3 [DF] [CE]4 | [EG]2 [CE]2 [Ge]3 [Fd] | [Ec]3 [GB] A^G A2 | D2 E2 F3 [B,FA] | %7
w: ||||
 [CEG]3 [G,DF] [G,CE]4 |[Q:1/4=110] [CEG]2 [G,CE]2 [Ec]3 [Fd] | [Ge]2 [Gc]2 dc A2 | %10
w: |||
 [EG]2 [CE]2 [Ec]3 [Fd] | [Ge]2 [Gc]2 [Gd]4 | [Ge]2 [EGc]2 [EGc]2 [CG]2 | %13
w: |||
 [CFA]2 [CAc]2 [CAc]2 [CFA]2 | [CG]2 [Ec]2 B2 c2 | d3 e [Ec]4 |] %16
w: |||
V:2
 [C,C]2 [C,G,]2 [C,G,]3 [C,G,] | [G,,G,]2 [G,,G,]2 [G,,G,]2 [G,,G,]2 | %2
 [G,,G,]2 [G,,G,]2 [G,,G,]3 [G,,G,] | [C,G,]3 [C,G,] [C,G,]4 | [C,C]2 [C,G,]2 [C,C]3 [D,B,] | %5
 z4 .C2 z2 | [G,B,]2 [G,C]2 [G,D]3 G,, | C,3 C, C,4 | C,2 C,2 [C,G,]3 [C,G,] | %9
 [C,C]2 [E,C]2 [F,A,F]2 [F,CF]2 | [C,C]2 [C,G,]2 [C,G,]3 [C,G,] | [C,C]2 [E,C]2 [G,B,]4 | %12
 [C,C]2 C,2 C,2 E,2 | F,2 F,2 F,2 F,2 | E,2 [C,G,]2[K:treble] [G,D]2 [G,CE]2 | %15
 [G,B,F]3 [G,B,G][K:bass] [C,G,C]4 |] %16
V:3
 x8 | x8 | x8 | x8 | x8 | [E,C]3 [E,C] [F,F]-[F,B,F] [F,CF]2 | x8 | x8 | x8 | x8 | x8 | x8 | x8 | %13
 x8 | x4[K:treble] x4 | x4[K:bass] x4 |] %16

